X:1

T: Barrel Rafferty's

S: M. Rafferty

Q: 325

R: jig

M: 6/8

L: 1/8

K: Ador

D | E2 A AGE | A2 B c2 E | EDE GFG | A2 A GED |

E2 A AGE | A2 B c2 d | ege dBG | A3 A2 :|

d | e2 a aga | b2 a g2 e | ede g2 g | a2 e ged |

e2 a aga | b2 a g2 e | age dBG | A3 A2 :|

           

BARREL RAFFERTY'S REEL. AKA – “McDermott’s Reel [1].” Irish, Reel. D Major. Standard tuning. AAB (Carlin): AABB’ (Harker/Rafferty). The tune is similar to “Master McDermott’s," composed or adapted by Michael McDermott in 1943, but also self-credited to Sean Maguire and Liam Donnelly. The title “Barrel Rafferty’s” refers to the nickname of the flute-playing father of East Galway/New York flute player Mike Rafferty, whose lung capacity would fill a barrel. See also the related “Boys of the Lough,” “Farewell to Erin/Eireann [2].” Source for notated version: New Jersey flute player Mike Rafferty, born in Ballinakill, Co. Galway, in 1926 [Harker]. Carlin (Master Collection), 1984; pg. 118 (#198). Harker (300 Tunes from Mike Rafferty), 2005; No. 14, pg. 5. Ossian 109, Kevin Griffin (reissue of “Down in Doolin”). Rounder Easy Disc EDIS 9011, Mike Rafferty – “Celtic Winds: Irish Music in America.”

